X:1
T:Title
%%score { 1 | ( 2 3 ) }
L:1/8
M:4/4
K:Ab
V:1 treble nm="Grand Piano"
V:2 bass 
V:3 bass 
V:1
 z4 z2[Q:1/4=100] E2 | [CE]3 [CE] [DF]EAB | [Ec]3 B [A,CA]2 z2 | [A,DF]4 [=A,EF]2 [A,EF]2 | %4
[M:3/4] [B,DF]6 |[M:1/4] E2 |[M:4/4] [CE]3 [CE] [DF]EAB | [Ec]3 B [A,CA]2 c2 | [Fd]3 [Ec] [DB]Acc | %9
 B4 F2 z2 | E4 F2 E2 | [CA]6 z2 | [DF]4 [FA]2 [DF]2 | [CE]6 z2 | B2 z2 A2 z2 | B6 z2 | %16
 [Ec]3 [Ec] [CA][CA][Ec][_Gc] | [Fd]3 F F2 F2 | %18
 E2 E2 E3 E[Q:1/4=99][Q:1/4=97][Q:1/4=96][Q:1/4=94][Q:1/4=93][Q:1/4=91][Q:1/4=90][Q:1/4=88][Q:1/4=87][Q:1/4=85][Q:1/4=84][Q:1/4=82][Q:1/4=81][Q:1/4=79][Q:1/4=78][Q:1/4=76] | %19
 [CE]6 z2 |] %20
V:2
 z4 z2 C2 | [A,,A,]4 z CCD | z2 z D A,,2 z2 | D,4 C,2 C,2 |[M:3/4] B,,6 |[M:1/4] D2 | %6
[M:4/4] [A,,A,]4 z CCD | z2 z D A,,2 E2 | [A,,A,]4 z CEE | [D,A,D]4 [D,A,D]2 z2 | %10
 [E,G,D]4 [E,G,D]2 [E,G,D]2 | [A,,A,]6 z2 | [D,A,]4 [D,A,]2 [D,A,]2 | [A,,A,]6 z2 | %14
 [E,G,D]2 z2 [F,A,C]2 z2 | [E,G,E]6 z2 | [A,,A,]3 [A,,A,] [A,,E,][A,,E,][A,,A,][C,A,] | %17
 [D,A,]3 [D,A,D] [D,A,D]2 [D,A,D]2 | [E,G,B,]2 [E,A,C]2 [E,B,D]3 [E,B,D] | [A,,A,]6 z2 |] %20
V:3
 x8 | z4 [A,,A,]4 | [A,,A,]4 z4 | x8 |[M:3/4] x6 |[M:1/4] x2 |[M:4/4] z4 [A,,A,]4 | [A,,A,]4 z4 | %8
 z4 [A,,A,]4 | x8 | x8 | x8 | x8 | x8 | x8 | x8 | x8 | x8 | x8 | x8 |] %20

